X:1
T:The Well-Tempered Clavier Part II Praeludium IV
T:BWV 873
T:J. S. Bach
%%score { ( 1 2 ) | 3 }
L:1/8
M:9/8
K:E
V:1 treble nm="Harp"
V:2 treble 
V:3 bass 
V:1
 z3 z z G c/4B/4c3/2 e |{e} d3- d>de/f/ g/4f/4g3/2 g | g2 c f/4e/4f/- f2- f2 f | %3
 f2 g f/4e/4f/4e/4f/4e/4f/4e/4f/4e/4f/4e/4 f/4e/4f/4e/4de | d3 z z d{d} e2 ^B | %5
{^B} c3- c>ed/c/{c} a2 c | %6
{c} ^B2 G d/4c/4d/4c/4d/4c/4d/4c/4d/4c/4d/4c/4 d/4c/4d/4c/4d/4c/4d/4c/4d/4c/4d/4c/4 | %7
 d/4c/4d/4c/4d/4c/4d/4c/4 d{c} B6- | B3 B/4A/4B/4A/4B/4A/4B/4A/4 G{G} A2 B |{A} G z z z2 G c3- | %10
 c2 d c/4B/4c/4B/4c/4B/4c/4B/4c/4B/4c/4B/4 c/4B/4c/4B/4^AB | ^A3 A2 B c/4^B/4c/- c2- | %12
 ced e/4d/4 e2- e/- e2 c | d/4c/4d3/2 e fed ^eg^^f | g^^f^e f2 g ^a2 f | %15
 g2 ^a g3- g/4^^f/4g/4f/4g/4f/4g/4f/4 g | g3 z3 z3 |{B} ^A3- A>cB/A/ df/e/f | z3 z z g gaf | %19
{e} d3- d>fe/d/ gb/a/b | ^e/4f/4e/dc f6- | fed e6- | e3- edc dcB | c3- c2 f edc | B4 AG cde | %25
 ABc{A} G>FE/F/ G/4F/4G/4F/4G/4F/4G/4F/4G/4F/4E/4F/4 | EGB e/d/ee e/4d/4e3/2 e | %27
 ef/e/d/c/ d2 ^e{f} e2 f | f3- fa/g/f/e/ df/e/f |{c} ^B2 d g4- g/g/^a/b/ | %30
 b/4^a/4b/4a/4b/4a/4b/4a/4b/4a/4g/4a/4 b>=ag/f/{f} g2 ^e |{^e} f2 g{f} e3- e2 f | %32
 f3- f2 f/g/4a/4 e=dc |{c} B>=dc/B/ g3- g2 a |{g} f3- f>ag/f/ f^eg | =dc^e f2 a ^d=ef | %36
{c} ^B2 G c6- | c>ed/c/{c} ^B2 z z3 | z3 z z G c/4^B/4c3/2e |{e} d3- d>de/f/ g2 g | g2 c f4- ff | %41
 f2 g f/4e/4f/4e/4f/4e/4f/4e/4f/4e/4f/4e/4 f/4e/4f/4e/4de |{e} d3 z z d{d} e2 ^B | %43
{^B} c3- c>ed/c/{c} a2 c |{c} ^B2 G g3- g2 g | g3 =g3 z z f | e>dc/d/ e6- | edc ^B3 =B3- | %48
 B2 c BAG GFE |{E} D>G^B/d/ g/f/gg g2 g | ga/g/f/e/ f2 f f2 f | f3 efg cde | %52
{B} ^A2 D d/c/ d2- d>d^e/f/ | f/4^e/4f/4^e/4f/4e/4f/4^e/4e/d/4e/4 f-f/=e/=d/c/ B3- | %54
 B2 c{B} A3 B/4A/4B/4A/4B/4A/4B/4A/4B/4A/4G/4A/4 | G z z z2 G c3- | c3 ^B2 c d3- | %57
 d2 e{e} f3- f2 d |{d} e3 ^e3 f3 | e3 dfe f/g/ag | fed c3 c/4^B/4c/4B/4c/4B/4c/4B/4 c | c3 z3 z3 |] %62
V:2
 z z2 z3 E3 | F3 G3[I:staff +1] D3 | C3- C>[I:staff -1]ed/c/ c^Bc |{A} G2 ^B c3- cBc | %4
 ^B3 z3 z z G | A3 z3 z z A | G3 z z[I:staff +1] G,[I:staff -1] C2 E | D3- D>DE/F/ G/4F/4G3/2 G | %8
 G2 C F3- F2 F | F2 G F/4E/4F/4E/4F/4E/4F/4E/4F/4E/4F/4E/4 F/4E/4F/4E/4 DE | D6 G3- | %11
 G3 ^^F2 G ^A3- | A2 B{B} c3- c2 ^A | B3 ^B3 c3 | =B3 ^AcB c/d/=ed | cBc B3 ^A2 G | G3- G2 d dec | %17
 x9 | ^B^AG c6- | c3 B6- | B3 ABA AGA | B3- B2 c B^AG | d/4c/4d/4c/4d/4c/4d/4c/4 ^A F3- F2 G | %23
 EDC FGA GFE | DCB, E6- | E6 D3 | E2 z z3 z3 | EDC FGA GFE | Bc/B/A/G/ A3- A2 A | G3 z z G c3- | %30
 c3 z z F B2 G | A2 B G2 B/c/4=d/4 dcB | A3 z z[I:staff +1] C F2[I:staff -1] A | G3- G>GA/B/ c2 c | %34
 c2 F B3- B2 B | B2 c{B} A3 AGA | G3 z z G ^B/4A/4B/4A/4B/4A/4B/4A/4 E | F3- F>AG/F/{F} d2 F | %38
 E6- E2 c | c3 ^B3 z =B/A/B | B3 A>BA/G/ A2 A | AG^B c3- c^Bc | ^B3 z3 z z G | A3 z3 z z A | %44
 G2 z z z G c/d/ec |{B} ^A3- A>cB/=A/ ^Bcd | G3- G>EF/G/ Ac/^B/c | F3- F2 G F^ED | %48
{E} ^E3 F2 =E EDC |[I:staff +1] ^B,2[I:staff -1] z z3 z3 | z z/ D/F/^A/ d/c/dd d2 d | %51
 de/d/c/^B/ cde ^A=Bc |{G} ^^F3 z z D G3- | G3 x z z z z/ A/G/F/ | G6 F3- | %55
 F2 G F/4E/4F/4E/4F/4E/4F/4E/4F/4E/4F/4E/4 z DE | D3- D2 E F/4E/4F/- F2- | FAG{G} A3- A2 F | %58
 G2 A BAG ^Ac^B | c^B^A B2 c d2 B | c2 A E3 D2 E | [CEG]3 z3 z3 |] %62
V:3
 C,E,G, C6- | CB,A, B,3 B,>E,F,/G,/ |{G,} A,3- A,>G,F,/E,/ D,2 F, | ^B,,2 G,, C,3 C,,3 | %4
 G,,^B,,D, G,>A,G,/F,/ G,/4F,/4G,3/2 G, | G,>C,D,/=F,/ ^F,/4^E,/4F,G,/F,/=E,/ F,2 F, | %6
 F,G,/F,/E,/D,/ E,3- E,D,C, | F,E,D, G,2 F,{F,} ^E,>E,F,/G,/ | A,B,G, F,G,E, D,E,C, | %9
 ^B,,^A,,G,, C,D,=B,, A,,B,,G,, | ^^F,,^E,,D,, G,,B,,^A,, B,,C,D, | E,F,D, C,D,B,, ^A,,/B,,/C,A,, | %12
 D,,4- D,,^^F,{F,} G,3- | G,F,E, D,2 G, D,/4C,/4D,/4C,/4D,/4C,/4D,/4C,/4D,/4C,/4^B,,/4C,/4 | %14
 D,/4^^C,/4D,/4C,/4D,/4C,/4D,/4C,/4D,/4C,/4^B,,/4C,/4 D,3- D,2 D | EDC D3 D,3 | G,,B,,D, G,6- | %17
 G,>D,D,/E,/ F,2 F,, F,/4E,/4F,/- F,2- | %18
 F,3 F,/4E,/4F,/4E,/4F,/4E,/4F,/4E,/4F,/4E,/4D,/4E,/4 G,/4F,/4G,/4F,/4G,/4F,/4G,/4F,/4G,/4F,/4E,/4F,/4 | %19
 G,2 A, G,2 F, ^E,F,G, | C,3 z z C C=DB, |{A,} G,3- G,>B,A,/G,/ CE/D/E | %22
 B,/4^A,/4B,/4A,/4G,F, B,/4A,/4B,3/2 B,, B,/4A,/4B,/- B,2- | %23
 B,C/B,/A,/G,/ A,/4G,/4A,3/2 A,, A,/4G,/4 A,2- A,/- | A,B,/A,/G,/F,/ G,2 C{B,} A,2 G, | %25
 F,G,A, B,/4A,/4 B,2- B,/ B,,3 | E,3- E,G,/F,/E,/D,/ C,B,^A, | B,3- B,>A,G,/F,/ G,2 C | %28
 F,A,C F/^E/FF F/4=E/4F3/2 F | FG/F/E/D/ EE/D/E E/4D/4E3/2 E | EF/E/=D/C/ D/C/DD D/4C/4D3/2 D | %31
 C2 B, C3 C,3 | F,,A,,C, F,6- | F,E,=D,{=D,} E,3- E,>A,,B,,/C,/ | =D,3- D,>C,B,,/A,,/ G,,2 B,, | %35
 ^E,,2 C,, F,,>C,D,/E,/ F,2 F, | F,G,/F,/E,/D,/ E,F,/E,/D,/C,/ F,A,/G,/A, | %37
 D,E,F, G,2 D, ^B,,2 G,, | C,>G,^A,/^B,/ CD=B, =A,B,G, | %39
 F,>D,E,/F,/ G,A,F, F,/4^E,/4F,/4E,/4F,/4E,/4F,/4E,/4F,/4E,/4D,/4E,/4 | F,3- F,2 E, D,E,C, | %41
 ^B,,2 G,, C,/4^B,,/4C,/- C,2 C,,3 | G,,^B,,D, G,>A,G,/F,/ G,/4F,/4G,3/2 G, | %43
 G,>C,D,/^E,/ F,/4^E,/4F,G,/F,/=E,/ F,/4E,/4F,3/2 F, | F,>=C,^C,/D,/ E,>F,E,/D,/ E,2 E, | %45
 E,>^A,,^B,,/C,/ D,>E,D,/C,/ D,2 D, | D,>G,,^A,,/^B,,/ C,>D,C,/B,,/ C,D,E, | %47
 A,,2 A, A,/4G,/4A,D,/E,/F,/ G,/4F,/4G,3/2 G, | G,/4F,/4G,3/2 C, F,/^E,/F,F, F,2 F, | %49
 F,G,/F,/E,/D,/ F,/4E,/4F,/4E,/4F,/4E,/4F,/4E,/4F,/4E,/4F,/4E,/4 F,/4E,/4F,/4E,/4F,/4E,/4F,/4E,/4D,/E,/ | %50
 D, z z z z/ E,/D,/C,/ ^B,,/C,/D,G,, | C,>C,E,/G,/ C/^B,/CC C2 C | %52
 CD/C/B,/^A,/ B,B,/A,/B, B,/4A,/4B,3/2 B, | B,C/B,/A,/G,/ A,/F,/G,/A,/B,/C/ =D/C/DB, | %54
{F,} E,>C,D,/^E,/ F,A,/G,/F,/=E,/ D,E,C, | ^B,,/C,/D,G,, C,E,D, E,F,G, | A,B,G, F,G,E, D,/E,/F,D, | %57
 G,,3- G,,2 ^B,{B,} C3- | CB,A, G,2 C G,/4F,/4G,/4F,/4G,/4F,/4G,/4F,/4G,/4F,/4^E,/4F,/4 | %59
 G,/4^^F,/4G,/4F,/4G,/4F,/4G,/4F,/4G,/4F,/4^E,/4F,/4 G,3- G,2 G,, | A,,G,,F,, G,,2 ^^F, G,2 G,, | %61
 C,,3 z3 z3 |] %62

